X: 1
T:  TEARS
M: 3/4
C: Jerry Holland
L: 1/8
R: WALTZ
K: A
|:!1!E !2!A!1!B |"A" !2!c2!3!e2 (!4!g!5!a) |"E7" ({f} !4!g3) f e!1!d |"A7" !3!c B3 ({Bc} !1!A2) |"D" {c}!3!d3 e {fg}fe |
"A" ({cd}!4!e4) !2!c!1!A | "Fm" !5!f2 !4!e2 z !2!c/2!3!d/2 | "Bm" (!1!B4 B) !2!c  | "E7" (!1!B !3!B2) !1!E !2!A!1!B |
"A" !2!c2 !3!e2 (!4!g!5!a) | "E7" ({f} !4!g3) f e!1!d | "A" !3!c B3 ({Bc} !1!A2) | "D" {c}!3!d3 e {fg}!5!f!4!e |
"A" ({cd}!4!e3) !2!c !1!A!2!F | "E7" !1!E !4!c3 B2 | "A" ({FG} (!2!A4) A) B | "A" !2!A3 :|]
"^part 2"|: (!3!B c!5!d) |"E7"!3!B3 !1!E !3!B!4!c |"E7"!1!d2 !4!f3 ({fg} (f) !3!e) |"A"{cd}e3 (f e)d |"A"!1!c4 !4!cd |
"E7" !3!B3 !1!E !3!B!4!c | "E7" !1!d2 !4!f2 !3!e2 | "A" (!1!B !2!c4) d | !2!c3 !1!A  (!4!c!5!d) |
"E7" !3!B3 !1!E B!4!c | "E7" !1!d2 !4!f3 ({fg} (f) e) | "A" {cd}!3!e3 (!4!f e)!2!d | "A7" !2!c!1!A !3!dA !4!eA |
"D" {d}!1!d2 !2!f3 [ae] | "E7" ({cd} !1!e2) !3!g2 (!3!g!5!a) | "A" ([ac]4 a)!5!b | "A" !4!a3 :|]
